theme/essential/pix_core/t/up.svg

<!DOCTYPE svg PUBLIC "-//W3C//DTD SVG 1.1//EN" "http://www.w3.org/Graphics/SVG/1.1/DTD/svg11.dtd" [
	<!ENTITY ns_flows "http://ns.adobe.com/Flows/1.0/">
]><svg xmlns="http://www.w3.org/2000/svg" width="12" height="12" viewBox="0 0 12 12" preserveAspectRatio="xMinYMid meet" overflow="visible"><path d="M4.5 11v-5.7l-2.1 2.1c-.4.4-1 .4-1.4 0l-.7-.7c-.4-.4-.4-1 0-1.4l5-5c.4-.4 1-.4 1.4 0l.7.7 4.3 4.3c.4.4.4 1 0 1.4l-.7.7c-.4.4-1 .4-1.4 0l-2.1-2.1v5.7c0 .6-.5 1-1 1h-1c-.6 0-1-.5-1-1z" fill="#999"/></svg>

<?xml version="1.0" encoding="utf-8"?>
<!-- Generator: Adobe Illustrator 15.1.0, SVG Export Plug-In  -->
<!DOCTYPE svg PUBLIC "-//W3C//DTD SVG 1.1//EN" "http://www.w3.org/Graphics/SVG/1.1/DTD/svg11.dtd" [
	<!ENTITY ns_flows "http://ns.adobe.com/Flows/1.0/">
]>
<svg version="1.1"
	 xmlns="http://www.w3.org/2000/svg" xmlns:xlink="http://www.w3.org/1999/xlink" xmlns:a="http://ns.adobe.com/AdobeSVGViewerExtensions/3.0/"
	 x="0px" y="0px" width="12px" height="12px" viewBox="0 0 12 12" style="overflow:visible;enable-background:new 0 0 12 12;"
	 xml:space="preserve" preserveAspectRatio="xMinYMid meet">
<defs>
</defs>
<path style="fill:#29a1c4;" d="M4.5,11V5.3L2.4,7.4C2,7.8,1.4,7.8,1,7.4L0.3,6.7c-0.4-0.4-0.4-1,0-1.4l5-5c0.4-0.4,1-0.4,1.4,0
	L7.4,1c0,0,0,0,0,0l4.3,4.3c0.4,0.4,0.4,1,0,1.4L11,7.4c-0.4,0.4-1,0.4-1.4,0L7.5,5.3V11c0,0.6-0.5,1-1,1h-1C4.9,12,4.5,11.5,4.5,11
	z"/>
</svg>
